assets/symbols/mulberry/afternoon.svg

<svg height="850.394" viewBox="0 0 850.394 850.394" width="850.394" xmlns="http://www.w3.org/2000/svg"><path d="m668.18 511.2c0 13.649-2.569 26.689-7.27 38.67h-197.62c-4.69-11.98-7.271-25.03-7.271-38.67 0-58.59 47.49-106.08 106.08-106.08 58.591 0 106.081 47.49 106.081 106.08z" fill="#fff400"/><g fill="none"><path d="m463.32 549.94c-.011-.021-.021-.051-.03-.07-4.69-11.98-7.271-25.03-7.271-38.67 0-58.59 47.49-106.08 106.08-106.08 58.591 0 106.08 47.49 106.08 106.08 0 13.649-2.569 26.689-7.27 38.67m-99.639-164.07v-80.69m-64.36 96.41-44.58-67.28m-1.64 116.87-73.12-34.17m250.36-16.71 44.58-67.28m1.63 116.86 73.11-34.16m-311.58 96.8h-80.7m413.01 0h-80.7m-606.56 37.42h687.56" stroke="#231f20" stroke-width="21"/><path d="m0 0h850.394v850.394h-850.394z"/></g></svg>

<svg xmlns="http://www.w3.org/2000/svg" width="850.394" height="850.394" viewBox="0 0 850.394 850.394" overflow="visible"><path d="M668.18 511.2c0 13.649-2.569 26.689-7.27 38.67H463.29c-4.69-11.98-7.271-25.03-7.271-38.67 0-58.59 47.49-106.08 106.08-106.08 58.591 0 106.081 47.49 106.081 106.08z" fill="#fff400"/><g fill="none" stroke="#231f20" stroke-width="21"><path d="M463.32 549.94c-.011-.021-.021-.051-.03-.07-4.69-11.98-7.271-25.03-7.271-38.67 0-58.59 47.49-106.08 106.08-106.08 58.591 0 106.08 47.49 106.08 106.08 0 13.649-2.569 26.689-7.27 38.67M561.27 385.8v-80.69M496.91 401.52l-44.58-67.28M450.69 451.11l-73.12-34.17M627.93 400.23l44.58-67.28M674.14 449.81l73.11-34.16M435.67 512.45h-80.7M767.98 512.45h-80.7M80.72 549.87H768.28"/></g><path fill="none" d="M0 0h850.394v850.394H0z"/></svg>
